icons/mobile/20/svg/translate-20.svg

<!-- This Source Code Form is subject to the terms of the Mozilla Public
   - License, v. 2.0. If a copy of the MPL was not distributed with this
   - file, You can obtain one at http://mozilla.org/MPL/2.0/. -->
<svg xmlns="http://www.w3.org/2000/svg" width="20" height="20" fill="none" viewBox="0 0 20 20">
    <path fill="#000" d="M17.37 17H19l-3.626-8.543a.75.75 0 0 0-.69-.457h-.829a.75.75 0 0 0-.69.457l-1.848 4.353c-.004-.002-.005-.009-.01-.01a10.8 10.8 0 0 1-3.263-2.2 12.4 12.4 0 0 0 2.539-4.185L11.085 5H12V3.5H7.75V2h-1.5v1.5H2V5h7.493l-.325.913a10.9 10.9 0 0 1-2.125 3.558A10.9 10.9 0 0 1 5.407 6.5H3.813l.172.483a12.4 12.4 0 0 0 1.978 3.553A10.8 10.8 0 0 1 3 12.321v1.58a12.3 12.3 0 0 0 3.963-2.259 12.3 12.3 0 0 0 3.77 2.543L9.538 17h1.63l1.061-2.5h4.08zm-4.504-4 1.403-3.306L15.672 13z" />
</svg>

<!-- This Source Code Form is subject to the terms of the Mozilla Public
   - License, v. 2.0. If a copy of the MPL was not distributed with this
   - file, You can obtain one at http://mozilla.org/MPL/2.0/. -->
<svg width="20" height="20" viewBox="0 0 20 20" fill="none" xmlns="http://www.w3.org/2000/svg">
    <path d="M17.37 17H19L15.374 8.457C15.256 8.18 14.984 8 14.684 8H13.855C13.554 8 13.282 8.18 13.165 8.457L11.317 12.81C11.313 12.808 11.312 12.801 11.307 12.8C10.108 12.282 9.005 11.539 8.044 10.6C9.152 9.39 10.033 7.961 10.583 6.415L11.085 5H12V3.5H7.75V2H6.25V3.5H2V5H9.493L9.168 5.913C8.703 7.221 7.966 8.432 7.043 9.471C6.349 8.571 5.788 7.566 5.407 6.5H3.813L3.985 6.983C4.44 8.262 5.115 9.469 5.963 10.536C5.067 11.293 4.07 11.892 3 12.321V13.901C4.442 13.405 5.781 12.645 6.963 11.642C8.071 12.731 9.346 13.589 10.733 14.185L9.538 17H11.168L12.229 14.5H16.309L17.37 17ZM12.866 13L14.269 9.694L15.672 13H12.866Z" fill="black" />
</svg>
